img/icons/mime/large/png.svg

<svg height="140.9" width="125.3" xmlns="http://www.w3.org/2000/svg" xmlns:xlink="http://www.w3.org/1999/xlink"><linearGradient id="a" gradientTransform="matrix(.939922 0 0 .896911 -12.081733 -3.352424)" gradientUnits="userSpaceOnUse" x1="24" x2="73" y1="16.4" y2="73.4"><stop offset="0" stop-color="#fff"/><stop offset="1" stop-color="#fff" stop-opacity="0"/></linearGradient><linearGradient id="b" gradientTransform="matrix(1.222575 0 0 .738788 -10.653167 -7.742593)" gradientUnits="userSpaceOnUse" x1="12.2" x2="107.8" y1="84" y2="84"><stop offset="0" stop-color="#46a046"/><stop offset=".4" stop-color="#df421e"/><stop offset=".7" stop-color="#ada7c8"/><stop offset="1" stop-color="#eed680"/></linearGradient><g stroke="#000"><rect fill="none" height="133.4" rx="22.9" stroke-linejoin="round" stroke-opacity=".5" stroke-width="7.5" width="117.8" x="3.8" y="3.8"/><rect fill="#df421e" height="133.4" rx="22.9" stroke-width="3.8" width="117.8" x="3.6" y="3.7"/><rect fill="url(#b)" height="67.2" rx="1.3" stroke-width="3.3" width="113.7" x="5.9" y="20.8"/></g><path d="m100.3 132.6h-75.7c-11.6 0-17.3-5.7-17.3-17.4 0 0 27.6-66.5 110.4-76.6v76.6c0 11.7-5.7 17.4-17.4 17.4z" fill="#fff" fill-opacity=".3"/><path d="m24.6 7.3h75.7c11.7 0 17.4 5.7 17.4 17.4 0 0-79.3.9-110.4 91.3v-91.3c0-10.3 7-17.4 17.3-17.4z" fill="url(#a)"/><path d="m93.1 126.2c-4.3 0-7.5-1.3-9.8-4-2.2-2.6-3.3-6.5-3.3-11.5 0-5.1 1.1-8.9 3.3-11.6 2.3-2.6 5.5-4 9.8-4h16.7v5.4h-14.7c-2.6 0-4.5.8-5.8 2.5-1.3 1.8-1.9 4.3-1.9 7.7s.6 6 1.8 7.7 3.1 2.5 5.9 2.5h8.1v-7.7h-8.8v-5.1h15.4v18.1zm-39.3 0h-6.7v-31.1h8.5l12.7 22.8h.2v-22.8h6.7v31.1h-8.5l-12.7-22.7h-.2zm-31.2-11.1v11.1h-6.7v-31.1h18.6c2.9 0 5.2.9 6.9 2.6s2.5 4.1 2.5 7.4-.8 5.8-2.5 7.5-4 2.5-6.9 2.5zm0-14.6v9.3h8.9c1.5 0 2.7-.4 3.6-1.1.9-.8 1.4-2 1.4-3.6 0-1.5-.5-2.7-1.4-3.5-.9-.7-2.1-1.1-3.6-1.1z"/><path d="m92.4 125.6c-4.2 0-7.5-1.4-9.7-4-2.3-2.7-3.4-6.6-3.4-11.6 0-5.1 1.1-8.9 3.4-11.6 2.2-2.6 5.4-4 9.7-4h16.7v5.4h-14.7c-2.6 0-4.5.9-5.8 2.6s-1.9 4.2-1.9 7.6.6 6 1.8 7.7 3.2 2.5 5.9 2.5h8.1v-7.6h-8.8v-5.2h15.4v18.2zm-39.3 0h-6.7v-31.2h8.5l12.8 22.8h.1v-22.8h6.7v31.2h-8.4l-12.8-22.8h-.2zm-31.2-11.2v11.2h-6.7v-31.2h18.7c2.8 0 5.1.9 6.8 2.6s2.5 4.2 2.5 7.4c0 3.3-.8 5.8-2.5 7.5s-4 2.5-6.8 2.5zm0-14.6v9.3h8.9c1.5 0 2.7-.3 3.6-1.1 1-.8 1.4-2 1.4-3.6 0-1.5-.4-2.7-1.4-3.4-.9-.8-2.1-1.2-3.6-1.2z" fill="#fff"/></svg>

<svg xmlns:svg="http://www.w3.org/2000/svg" xmlns="http://www.w3.org/2000/svg" xmlns:xlink="http://www.w3.org/1999/xlink" height="140.9" width="125.3" id="svg1" version="1">
<style>
.s0{
  stop-color:#46a046;
  stop-opacity:1;
}
.s1{
  stop-color:#df421e;
  stop-opacity:1;
}
.s2{
  stop-color:#ada7c8;
  stop-opacity:1;
}
.s3{
  stop-color:#eed680;
  stop-opacity:1;
}
.s4{
  stop-color:#00ff00;
  stop-opacity:1;
}
.s5{
  stop-color:#ff0000;
  stop-opacity:1;
}
.s6{
  stop-color:#7f8cff;
  stop-opacity:1;
}
.s7{
  stop-color:#ffff00;
  stop-opacity:1;
}

</style>  <metadata id="metadata15"/>
  <defs id="defs3">
    <linearGradient id="linearGradient3587">
      <stop offset="0" id="stop3589" style="stop-color:#efe0cd;stop-opacity:0.6"/>
      <stop offset="1" id="stop3591" style="stop-color:#cececd;stop-opacity:0.2"/>
    </linearGradient>
    <linearGradient id="linearGradient2832">
      <stop id="stop2834" offset="0" style="stop-color:#ffffff;stop-opacity:1"/>
      <stop id="stop2836" offset="1" style="stop-color:#ffffff;stop-opacity:0"/>
    </linearGradient>
    <linearGradient id="linearGradient839">
      <stop id="stop840" offset="0" class="s0"/>
      <stop id="stop841" offset="0.4" class="s1"/>
      <stop id="stop842" offset="0.7" class="s2"/>
      <stop id="stop843" offset="1" class="s3"/>
    </linearGradient>
    <linearGradient y2="84" x2="107.8" y1="84" x1="12.2" id="linearGradient836" xlink:href="#linearGradient839" gradientTransform="scale(1.353569,0.738788)" gradientUnits="userSpaceOnUse"/>
    <linearGradient gradientUnits="userSpaceOnUse" y2="73.4" x2="73" y1="16.4" x1="24" gradientTransform="matrix(0.939922,0,0,0.896911,-12.081733,-3.3524237)" id="linearGradient2830" xlink:href="#linearGradient2832"/>
    <linearGradient xlink:href="#linearGradient1700" id="linearGradient1407" gradientUnits="userSpaceOnUse" gradientTransform="matrix(0.777129,0,0,0.894628,-162.4688,12.76856)" x1="111.3" y1="124.3" x2="107.3" y2="93.7"/>
    <linearGradient xlink:href="#linearGradient1700" id="linearGradient1390" gradientUnits="userSpaceOnUse" gradientTransform="matrix(0.777129,0,0,0.894628,-2.922179,10.43077)" x1="111.3" y1="124.3" x2="107.3" y2="93.7"/>
    <linearGradient id="linearGradient1350">
      <stop id="stop1352" offset="0" class="s0"/>
      <stop id="stop1354" offset="0.4" class="s1"/>
      <stop id="stop1356" offset="0.7" class="s2"/>
      <stop id="stop1358" offset="1" class="s3"/>
    </linearGradient>
    <linearGradient y2="0.5" x2="1" y1="0.5" x1="0" id="linearGradient1360" xlink:href="#linearGradient839"/>
    <linearGradient gradientUnits="userSpaceOnUse" y2="88" x2="128.7" y1="121.7" x1="123.5" gradientTransform="matrix(0.870364,0,0,1.001961,4.612015,4.886798)" id="linearGradient1362" xlink:href="#linearGradient1700"/>
    <linearGradient y2="0.5" x2="1" y1="0.5" x1="0" id="linearGradient1363" xlink:href="#linearGradient839"/>
    <linearGradient id="linearGradient1353">
      <stop id="stop1355" offset="0" class="s0"/>
      <stop id="stop1357" offset="0.4" class="s1"/>
      <stop id="stop1359" offset="0.7" class="s2"/>
      <stop id="stop1361" offset="1" class="s3"/>
    </linearGradient>
    <linearGradient id="linearGradient1700">
      <stop id="stop1701" offset="0" style="stop-color:#000000;stop-opacity:0.7"/>
      <stop id="stop1702" offset="1" style="stop-color:#000000;stop-opacity:0"/>
    </linearGradient>
    <linearGradient xlink:href="#linearGradient839" id="linearGradient1427" x1="0" y1="0.5" x2="1" y2="0.5"/>
    <linearGradient id="linearGradient1417">
      <stop offset="0" id="stop1419" class="s0"/>
      <stop offset="0.4" id="stop1421" class="s1"/>
      <stop offset="0.7" id="stop1423" class="s2"/>
      <stop offset="1" id="stop1425" class="s3"/>
    </linearGradient>
    <linearGradient y2="0.5" x2="1" y1="0.5" x1="0" id="linearGradient1381" xlink:href="#linearGradient839"/>
    <linearGradient id="linearGradient1371">
      <stop id="stop1373" offset="0" class="s0"/>
      <stop id="stop1375" offset="0.4" class="s1"/>
      <stop id="stop1377" offset="0.7" class="s2"/>
      <stop id="stop1379" offset="1" class="s3"/>
    </linearGradient>
    <linearGradient xlink:href="#linearGradient839" id="linearGradient1374" x1="0" y1="0.5" x2="1" y2="0.5"/>
    <linearGradient id="linearGradient1364">
      <stop offset="0" id="stop1366" class="s0"/>
      <stop offset="0.4" id="stop1368" class="s1"/>
      <stop offset="0.7" id="stop1370" class="s2"/>
      <stop offset="1" id="stop1372" class="s3"/>
    </linearGradient>
    <linearGradient xlink:href="#linearGradient839" id="linearGradient1389" x1="0" y1="0.5" x2="1" y2="0.5"/>
    <linearGradient id="linearGradient833">
      <stop offset="0" id="stop834" class="s4"/>
      <stop offset="0.3" id="stop837" class="s5"/>
      <stop offset="0.8" id="stop838" class="s6"/>
      <stop offset="1" id="stop835" class="s7"/>
    </linearGradient>
    <linearGradient id="linearGradient1373">
      <stop offset="0" id="stop1376" class="s0"/>
      <stop offset="0.4" id="stop1378" class="s1"/>
      <stop offset="0.7" id="stop1380" class="s2"/>
      <stop offset="1" id="stop1382" class="s3"/>
    </linearGradient>
    <linearGradient xlink:href="#linearGradient839" id="linearGradient1401" gradientUnits="userSpaceOnUse" gradientTransform="matrix(1.222575,0,0,0.738788,-10.653167,-7.7425927)" x1="12.2" y1="84" x2="107.8" y2="84"/>
    <linearGradient xlink:href="#linearGradient839" id="linearGradient2974" x1="0" y1="0.5" x2="1" y2="0.5"/>
    <linearGradient id="linearGradient2964">
      <stop offset="0" id="stop2966" class="s4"/>
      <stop offset="0.3" id="stop2968" class="s5"/>
      <stop offset="0.8" id="stop2970" class="s6"/>
      <stop offset="1" id="stop2972" class="s7"/>
    </linearGradient>
    <linearGradient id="linearGradient2954">
      <stop offset="0" id="stop2956" class="s0"/>
      <stop offset="0.4" id="stop2958" class="s1"/>
      <stop offset="0.7" id="stop2960" class="s2"/>
      <stop offset="1" id="stop2962" class="s3"/>
    </linearGradient>
    <linearGradient xlink:href="#linearGradient839" id="linearGradient2987" gradientUnits="userSpaceOnUse" gradientTransform="matrix(1.353569,0,0,0.738788,-182.1667,-25.6819)" x1="12.2" y1="84" x2="107.8" y2="84"/>
    <linearGradient y2="0.5" x2="1" y1="0.5" x1="0" id="linearGradient1418" xlink:href="#linearGradient839"/>
    <linearGradient id="linearGradient1408">
      <stop id="stop1410" offset="0" class="s4"/>
      <stop id="stop1412" offset="0.3" class="s5"/>
      <stop id="stop1414" offset="0.8" class="s6"/>
      <stop id="stop1416" offset="1" class="s7"/>
    </linearGradient>
    <linearGradient id="linearGradient1397">
      <stop id="stop1399" offset="0" class="s0"/>
      <stop id="stop1401" offset="0.4" class="s1"/>
      <stop id="stop1403" offset="0.7" class="s2"/>
      <stop id="stop1405" offset="1" class="s3"/>
    </linearGradient>
    <linearGradient y2="84" x2="107.8" y1="84" x1="12.2" gradientTransform="matrix(1.353569,0,0,0.738788,-194.7091,-13.83491)" gradientUnits="userSpaceOnUse" id="linearGradient1431" xlink:href="#linearGradient839"/>
    <linearGradient xlink:href="#linearGradient839" id="linearGradient1430" x1="0" y1="0.5" x2="1" y2="0.5"/>
    <linearGradient id="linearGradient1419">
      <stop offset="0" id="stop1422" class="s4"/>
      <stop offset="0.3" id="stop1424" class="s5"/>
      <stop offset="0.8" id="stop1426" class="s6"/>
      <stop offset="1" id="stop1428" class="s7"/>
    </linearGradient>
    <linearGradient id="linearGradient1409">
      <stop offset="0" id="stop1411" class="s0"/>
      <stop offset="0.4" id="stop1413" class="s1"/>
      <stop offset="0.7" id="stop1415" class="s2"/>
      <stop offset="1" id="stop1417" class="s3"/>
    </linearGradient>
    <linearGradient xlink:href="#linearGradient839" id="linearGradient2256" x1="0" y1="0.5" x2="1" y2="0.5"/>
    <linearGradient id="linearGradient2246">
      <stop offset="0" id="stop2248" class="s4"/>
      <stop offset="0.3" id="stop2250" class="s5"/>
      <stop offset="0.8" id="stop2252" class="s6"/>
      <stop offset="1" id="stop2254" class="s7"/>
    </linearGradient>
    <linearGradient id="linearGradient2236">
      <stop offset="0" id="stop2238" class="s0"/>
      <stop offset="0.4" id="stop2240" class="s1"/>
      <stop offset="0.7" id="stop2242" class="s2"/>
      <stop offset="1" id="stop2244" class="s3"/>
    </linearGradient>
    <linearGradient xlink:href="#linearGradient839" id="linearGradient2269" gradientUnits="userSpaceOnUse" gradientTransform="matrix(1.353569,0,0,0.738788,-202.1667,-3.665422)" x1="12.2" y1="84" x2="107.8" y2="84"/>
  </defs>
  <rect rx="22.9" ry="22.9" y="3.8" x="3.8" height="133.4" width="117.8" id="rect834" style="fill:none;stroke-linejoin:round;stroke-opacity:0.5;stroke-width:7.5;stroke:#000"/>
  <rect rx="22.9" ry="22.9" y="3.7" x="3.6" height="133.4" width="117.8" id="rect828" style="fill:#df421e;stroke-width:3.8;stroke:#000"/>
  <rect id="rect832" width="113.7" height="67.2" ry="1.3" x="5.9" y="20.8" rx="1.3" style="fill:url(#linearGradient1401);stroke-width:3.3;stroke:#000"/>
  <path id="path2838" d="M100.3 132.6L24.6 132.6C13 132.6 7.3 126.9 7.3 115.2 7.3 115.2 34.9 48.7 117.7 38.6L117.7 115.2C117.7 126.9 112 132.6 100.3 132.6z" style="fill-opacity:0.3;fill:#fff"/>
  <path id="rect2063" d="M24.6 7.3L100.3 7.3C112 7.3 117.7 13 117.7 24.7 117.7 24.7 38.4 25.6 7.3 116L7.3 24.7C7.3 14.4 14.3 7.3 24.6 7.3z" fill="url(#linearGradient2830)"/>
  <path d="M93.1 126.2C88.8 126.2 85.6 124.9 83.3 122.2 81.1 119.6 80 115.7 80 110.7 80 105.6 81.1 101.8 83.3 99.1 85.6 96.5 88.8 95.1 93.1 95.1L109.8 95.1 109.8 100.5 95.1 100.5C92.5 100.5 90.6 101.3 89.3 103 88 104.8 87.4 107.3 87.4 110.7 87.4 114.1 88 116.7 89.2 118.4 90.4 120.1 92.3 120.9 95.1 120.9L103.2 120.9 103.2 113.2 94.4 113.2 94.4 108.1 109.8 108.1 109.8 126.2 93.1 126.2zM53.8 126.2L47.1 126.2 47.1 95.1 55.6 95.1 68.3 117.9 68.5 117.9 68.5 95.1 75.2 95.1 75.2 126.2 66.7 126.2 54 103.5 53.8 103.5 53.8 126.2zM22.6 115.1L22.6 126.2 15.9 126.2 15.9 95.1 34.5 95.1C37.4 95.1 39.7 96 41.4 97.7 43.1 99.4 43.9 101.8 43.9 105.1 43.9 108.4 43.1 110.9 41.4 112.6 39.7 114.3 37.4 115.1 34.5 115.1L22.6 115.1zM22.6 100.5L22.6 109.8 31.5 109.8C33 109.8 34.2 109.4 35.1 108.7 36 107.9 36.5 106.7 36.5 105.1 36.5 103.6 36 102.4 35.1 101.6 34.2 100.9 33 100.5 31.5 100.5L22.6 100.5z" id="path857" style="font-family:Trek;font-size:40;stroke-width:1"/>
  <path d="M92.4 125.6C88.2 125.6 84.9 124.2 82.7 121.6 80.4 118.9 79.3 115 79.3 110 79.3 104.9 80.4 101.1 82.7 98.4 84.9 95.8 88.1 94.4 92.4 94.4L109.1 94.4 109.1 99.8 94.4 99.8C91.8 99.8 89.9 100.7 88.6 102.4 87.3 104.1 86.7 106.6 86.7 110 86.7 113.4 87.3 116 88.5 117.7 89.7 119.4 91.7 120.2 94.4 120.2L102.5 120.2 102.5 112.6 93.7 112.6 93.7 107.4 109.1 107.4 109.1 125.6 92.4 125.6zM53.1 125.6L46.4 125.6 46.4 94.4 54.9 94.4 67.7 117.2 67.8 117.2 67.8 94.4 74.5 94.4 74.5 125.6 66.1 125.6 53.3 102.8 53.1 102.8 53.1 125.6zM21.9 114.4L21.9 125.6 15.2 125.6 15.2 94.4 33.9 94.4C36.7 94.4 39 95.3 40.7 97 42.4 98.7 43.2 101.2 43.2 104.4 43.2 107.7 42.4 110.2 40.7 111.9 39 113.6 36.7 114.4 33.9 114.4L21.9 114.4zM21.9 99.8L21.9 109.1 30.8 109.1C32.3 109.1 33.5 108.8 34.4 108 35.4 107.2 35.8 106 35.8 104.4 35.8 102.9 35.4 101.7 34.4 101 33.5 100.2 32.3 99.8 30.8 99.8L21.9 99.8z" id="path2273" style="fill:#fff;font-family:Trek;font-size:40;stroke-width:1"/>
</svg>
